Icons/03AngleChooser.svg

<svg viewBox="0 0 16 16" xmlns="http://www.w3.org/2000/svg">
  <path d="m2.6671667 2.6661667c2.6671666-2.6661667 8.0005003-2.6661667 10.6666673-.0004999 2.666166 2.6656668 2.666166 8.0000002-.0005 10.6671672-2.666667 2.667166-7.9990007 2.667166-10.6661673-.0005-2.6671667-2.667667-2.6671667-8.0000007 0-10.6661673z" fill="#fff" stroke="#555"/>
  <path d="m7.3338333 7.3328333c.3338334-.3328333 1.0017907-.3328333 1.3339787-.0006453s.332188.9987082-.0013639 1.3332601-.9972759.3345519-1.331862-.0000342-.3345861-.9997472-.0007528-1.3325806z" fill="#555"/>
  <path d="m8 8 5-5" fill="none" stroke="#555"/>
</svg>

<?xml version="1.0" encoding="UTF-8" standalone="no"?>
<svg
   xmlns:dc="http://purl.org/dc/elements/1.1/"
   xmlns:cc="http://creativecommons.org/ns#"
   xmlns:rdf="http://www.w3.org/1999/02/22-rdf-syntax-ns#"
   xmlns:svg="http://www.w3.org/2000/svg"
   xmlns="http://www.w3.org/2000/svg"
   xmlns:sodipodi="http://sodipodi.sourceforge.net/DTD/sodipodi-0.dtd"
   xmlns:inkscape="http://www.inkscape.org/namespaces/inkscape"
   viewBox="0 0 16 16"
   version="1.1"
   id="svg10"
   sodipodi:docname="03AngleChooser.svg"
   inkscape:version="0.92.4 (5da689c313, 2019-01-14)"
   inkscape:export-filename="C:\Users\Kalama\Documents\GitHub\CodeLab-bb\Icons\03AngleChooser.32.png"
   inkscape:export-xdpi="192"
   inkscape:export-ydpi="192"><metadata
   id="metadata16">
  <rdf:RDF>
    <cc:Work
       rdf:about="">
      <dc:format>image/svg+xml</dc:format>
      <dc:type
         rdf:resource="http://purl.org/dc/dcmitype/StillImage" />
    </cc:Work>
  </rdf:RDF>
</metadata>
<defs
   id="defs14">
  <inkscape:path-effect
     effect="bspline"
     id="path-effect855"
     is_visible="true"
     weight="33.333333"
     steps="2"
     helper_size="0"
     apply_no_weight="true"
     apply_with_weight="true"
     only_selected="false" />
  <inkscape:path-effect
     effect="bspline"
     id="path-effect851"
     is_visible="true"
     weight="33.333333"
     steps="2"
     helper_size="0"
     apply_no_weight="true"
     apply_with_weight="true"
     only_selected="false" />
  <inkscape:path-effect
     effect="bspline"
     id="path-effect847"
     is_visible="true"
     weight="33.333333"
     steps="2"
     helper_size="0"
     apply_no_weight="true"
     apply_with_weight="true"
     only_selected="false" />
</defs>
<sodipodi:namedview
   pagecolor="#ffffff"
   bordercolor="#666666"
   borderopacity="1"
   objecttolerance="10"
   gridtolerance="10"
   guidetolerance="10"
   inkscape:pageopacity="0"
   inkscape:pageshadow="2"
   inkscape:window-width="944"
   inkscape:window-height="1002"
   id="namedview12"
   showgrid="false"
   showguides="false"
   inkscape:zoom="2.8284271"
   inkscape:cx="-31.326077"
   inkscape:cy="-24.682695"
   inkscape:window-x="0"
   inkscape:window-y="0"
   inkscape:window-maximized="0"
   inkscape:current-layer="svg10" />








     /&amp;gt;
 <path
   style="fill:#ffffff;stroke:#555555;stroke-width:1px;stroke-linecap:butt;stroke-linejoin:miter;stroke-opacity:1;fill-opacity:1"
   d="M 2.6671667,2.6661667 C 5.3343333,0 10.667667,0 13.333834,2.6656668 16,5.3313336 16,10.665667 13.333334,13.332834 10.666667,16 5.3343333,16 2.6671667,13.332334 0,10.664667 0,5.3323333 2.6671667,2.6661667 Z"
   id="path845"
   inkscape:connector-curvature="0"
   inkscape:path-effect="#path-effect847"
   inkscape:original-d="m 0,0 c 5.3343333,-0.001 10.667667,-0.001 16,0 0.001,5.3313336 0.001,10.665667 0,16 C 10.666667,15.999 5.3343333,15.999 0,16 0.001,10.664667 0.001,5.3323333 0,0 Z" />
<path
   style="fill:#555555;fill-opacity:1;stroke:none;stroke-width:1px;stroke-linecap:butt;stroke-linejoin:miter;stroke-opacity:1"
   d="M 7.3338333,7.3328333 C 7.6676667,7 8.335624,7 8.667812,7.332188 9,7.664376 9,8.3308962 8.6664481,8.6654481 8.3328962,9 7.6691722,9 7.3345861,8.6654139 7,8.3308278 7,7.6656667 7.3338333,7.3328333 Z"
   id="path849"
   inkscape:connector-curvature="0"
   inkscape:path-effect="#path-effect851"
   inkscape:original-d="M 7,7 C 7.6676667,6.999 8.335624,6.999 9,7 9.001,7.664376 9.001,8.3308962 9,9 8.3328962,8.999 7.6691722,8.999 7,9 7.001,8.3308278 7.001,7.6656667 7,7 Z"
   sodipodi:nodetypes="ccccc" />
<path
   style="fill:none;stroke:#555555;stroke-width:1px;stroke-linecap:butt;stroke-linejoin:miter;stroke-opacity:1"
   d="M 8,8 13,3"
   id="path857"
   inkscape:connector-curvature="0"
   sodipodi:nodetypes="cc" />
</svg>
